X:1
T:Conisborough, 10.10 D
T:Conisborough, 10.10 D
T:Wilfrid Ernest Sanderson, 1919
T:Public Domain Courtesy of the Cyber Hymnal™
C:Wilfrid Ernest Sanderson, 1919
Z:Public Domain
Z:Courtesy of the Cyber Hymnal™
%%score ( 1 2 ) ( 3 4 )
L:1/8
M:4/4
K:Eb
V:1 treble 
V:2 treble 
V:3 bass 
V:4 bass 
V:1
 [EG]4 [FA]2 [GB]2 | [Ac]6 [ce]2 | [Bd]2 [Ac]2 [ce]3 [Ac] | ([Ac]4 [GB]4- | %4
 [GB]2) [FB]2 [=Ec]2 [EG]2 | [GB]2 [FA]2 [GB]2 [Ac]2 | [EG]4 [CE]4 | [DF]8 | z2 E2 [DA]2 [_DB]2 | %9
 c6 c2 | [=Bd]3 [Bd] [=Ac]2 [Bd]2 | e4 (d2 c2) | [GB]4 (c2 B2) | [=EG]2 [EG]2 [FA]2 [GB]2 | %14
 c4 (A2 F2) | E8 |] %16
V:2
 x8 | x8 | x8 | x8 | x8 | x8 | x8 | x8 | G4 x4 | (C2 E2 A2) x2 | x8 | (c2 G2) =A4 | x4 E4 | x8 | %14
 (A2 C2) D4 | x8 |] %16
V:3
 [E,E]4 [E,D]2 [E,_D]2 | [A,C]6 [A,C]2 | [B,D]2 [CE]2 [A,C]3 [A,D] | [E,E]8- | %4
 [E,E]2 [_D,B,]2 [C,G,]2 [C,C]2 | [F,C]2 [F,C]2 [F,B,]2 [F,A,]2 | [F,=A,]4 [F,A,]4 | [B,,B,]8 | %8
 [E,B,]4 [E,F,]2 [E,G,]2 | [A,,A,]6 [A,E]2 | [G,F]3 [G,F] [G,F]2 [G,F]2 | [CE]4 [F,E]4 | %12
 [B,E]4 [B,,G,]4 | [C,B,]2 [C,B,]2 [C,A,]2 [C,G,]2 | (F,2 A,2) (B,2 A,2) | [E,G,]8 |] %16
V:4
 x8 | x8 | x8 | x8 | x8 | x8 | x8 | x8 | x8 | x8 | x8 | x8 | x8 | x8 | F,4 B,,4 | x8 |] %16

